ES1T1/16/aimg/miel.svg

<svg clip-rule="evenodd" fill-rule="evenodd" stroke-linejoin="round" stroke-miterlimit="2" viewBox="0 0 186 306" xmlns="http://www.w3.org/2000/svg" xmlns:xlink="http://www.w3.org/1999/xlink"><linearGradient id="a" gradientTransform="matrix(0 -234.827 234.827 0 269.411 464.691)" gradientUnits="userSpaceOnUse" x1="0" x2="1" y1="0" y2="0"><stop offset="0" stop-color="#e8c130"/><stop offset="1" stop-color="#e8c130" stop-opacity="0"/></linearGradient><g fill-rule="nonzero" transform="translate(-180 -171)"><path d="m213.35 210.02c-.38-6.86-.78-14.23-1.22-21.61-.17-2.83 1.69-4.44 3.7-5.62 7.44-4.34 15.28-8 23.88-8.96 10.28-1.15 20.65-1.7 30.99-2.16 4.34-.19 8.72.49 13.07.84 11.6.93 23.14 2.16 34.6 4.32 5.69 1.07 9.91 4.4 14.04 7.94 1.12.96 1.95 2.77 2.07 4.26.52 6.1.65 12.24 1.09 18.35.08 1.15.72 2.42 1.46 3.34 3.42 4.25 6.97 8.38 10.45 12.58.93 1.12 1.9 2.23 2.65 3.46 5.75 9.57 10.16 19.55 12.17 30.74 3.86 21.51 3.95 43.13 3.07 64.79-.65 15.99-2.1 31.95-3.22 47.91-.7 9.98-1.44 19.96-2.2 29.93-.61 7.98-1.35 15.95-1.92 23.93-.13 1.78.53 3.63.34 5.39-.4 3.63-1.95 6.82-3.61 10.13-7.17 14.26-19.5 22.34-33.35 28.48-15.25 6.77-31.46 8.72-48.01 7.88-7.98-.41-16.07-.61-23.87-2.15-7.61-1.5-15.03-4.26-22.31-7.05-8.31-3.17-16.66-6.33-24.15-11.35-5.7-3.83-9.99-8.99-13.73-14.54-1.52-2.26-2.17-5.42-2.34-8.22-.6-10.17-.65-20.37-1.24-30.54-.84-14.53-2.01-29.04-2.96-43.56-.51-7.81-.97-15.62-1.25-23.43-.55-15.29-1.02-30.58-1.41-45.87-.3-11.36 1.87-22.38 4.7-33.33 2.35-9.1 6.49-17.32 11.2-25.35 4.48-7.62 10.46-13.91 17.31-20.53zm3.36 3.19c-11.93 8.8-19.49 20.48-25.11 33.49-4.21 9.73-6.49 20.07-7.61 30.58-.71 6.68-1.03 13.44-.87 20.15.21 9.08 1.15 18.14 1.57 27.22.28 6.01.01 12.04.34 18.04.57 10.36 1.42 20.69 2.14 31.04.76 10.89 1.52 21.78 2.23 32.67.4 6.15.65 12.31 1.04 18.47.14 2.15 1.09 4.44.61 6.4-.75 3.04.17 5.61 1.67 7.74 4.76 6.72 10.17 12.91 17.96 16.34 7.48 3.29 15.08 6.35 22.51 9.76 7.71 3.54 15.94 5.3 24.2 6.1 10.65 1.03 21.33 1.47 32.14.52 13.31-1.17 25.84-4.33 37.49-10.63 6.04-3.27 12.22-6.77 16.52-12.35 2.97-3.86 5.06-8.38 7.88-12.37 2.47-3.49 2.98-7.27 3.16-11.36.34-7.82.88-15.64 1.5-23.44.87-11.07 2.03-22.11 2.79-33.18.66-9.62.94-19.27 1.42-28.9.06-1.27.33-2.53.39-3.8.64-14.72 1.73-29.45 1.71-44.17-.01-9.04-1.67-18.08-2.68-27.11-2.23-19.89-12.55-35.76-25.17-50.48-1.42-1.66-3-2.5-5.27-1.45-7.65 3.53-15.69 5.67-24.05 6.71-9.37 1.16-18.71 3.26-28.09 3.45-10.31.21-20.67-1.15-30.99-2.09-9.98-.91-19.74-2.96-29.43-7.35zm112.02-22.03c-3.18.5-5.92.58-8.42 1.38-13.17 4.21-26.74 4.98-40.41 5.19-3.46.05-6.95-.14-10.38.25-13.87 1.58-27.63.69-41.31-1.61-3.68-.62-7.25-1.92-11.64-3.12.32 3.49.39 6.35.87 9.14 1.28 7.28 1.34 7.3 7.99 10.11 1.5.63 3.07 1.18 4.66 1.47 5.54.99 11.2 1.44 16.63 2.84 9.11 2.35 18.44 2.24 27.63 2.53 13.86.43 27.51-2.16 40.88-5.86 3.67-1.02 7.27-2.31 10.87-3.54 3.12-1.07 4.83-3.91 4.84-6.61.02-3.88-1.33-7.76-2.21-12.17zm-111.95-4.15c3.04 3.2 3.03 3.22 6.34 4.07 12.23 3.14 24.56 5.12 37.29 4.24 8.7-.6 17.46-.25 26.14-.98 9.77-.81 19.51-2.15 29.2-3.7 3.44-.55 7.18-1.34 9.96-4.64-4.01-4.08-9.03-5.81-14.15-6.82-6.77-1.33-13.65-2.21-20.52-2.9-7.23-.72-14.5-1.29-21.76-1.37-6.71-.08-13.44.47-20.15.93-10.13.69-19.61 3.71-28.57 8.41-1.26.65-2.31 1.66-3.78 2.76z" fill="#252723"/><path d="m216.71 213.21c9.68 4.39 19.44 6.44 29.43 7.35 10.31.94 20.67 2.29 30.99 2.09 9.38-.19 18.72-2.28 28.09-3.45 8.36-1.04 16.4-3.18 24.05-6.71 2.27-1.05 3.85-.21 5.27 1.45 12.62 14.72 22.94 30.59 25.17 50.48 1.01 9.03 2.67 18.07 2.68 27.11.02 14.72-1.07 29.45-1.71 44.17-.06 1.27-.33 2.53-.39 3.8-.47 9.63-.75 19.28-1.42 28.9-.76 11.07-1.92 22.12-2.79 33.18-.61 7.81-1.15 15.62-1.5 23.44-.18 4.08-.7 7.87-3.16 11.36-2.82 3.99-4.91 8.52-7.88 12.37-4.3 5.58-10.48 9.09-16.52 12.35-11.64 6.29-24.17 9.46-37.49 10.63-10.82.95-21.5.51-32.14-.52-8.26-.8-16.49-2.56-24.2-6.1-7.43-3.41-15.02-6.47-22.51-9.76-7.79-3.43-13.2-9.61-17.96-16.34-1.5-2.12-2.42-4.69-1.67-7.74.48-1.96-.47-4.25-.61-6.4-.39-6.15-.64-12.31-1.04-18.47-.71-10.89-1.47-21.78-2.23-32.67-.72-10.35-1.57-20.69-2.14-31.04-.33-6-.06-12.04-.34-18.04-.43-9.08-1.36-18.14-1.57-27.22-.16-6.71.17-13.47.87-20.15 1.11-10.51 3.4-20.85 7.61-30.58 5.62-13.01 13.18-24.69 25.11-33.49z" fill="#c48033"/><path d="m328.73 191.18c.88 4.41 2.23 8.29 2.23 12.17-.01 2.69-1.71 5.54-4.84 6.61-3.61 1.23-7.2 2.52-10.87 3.54-13.37 3.7-27.02 6.29-40.88 5.86-9.2-.29-18.52-.18-27.63-2.53-5.43-1.4-11.09-1.85-16.63-2.84-1.59-.28-3.17-.84-4.66-1.47-6.65-2.81-6.71-2.82-7.99-10.11-.49-2.79-.56-5.65-.87-9.14 4.39 1.2 7.95 2.5 11.64 3.12 13.69 2.31 27.45 3.19 41.31 1.61 3.42-.39 6.92-.2 10.38-.25 13.66-.21 27.24-.98 40.41-5.19 2.48-.8 5.22-.88 8.4-1.38z" fill="#fff"/><path d="m216.78 187.03c1.47-1.09 2.52-2.11 3.76-2.76 8.96-4.7 18.44-7.72 28.57-8.41 6.71-.46 13.44-1.01 20.15-.93 7.26.08 14.53.65 21.76 1.37 6.87.69 13.75 1.57 20.52 2.9 5.13 1.01 10.14 2.74 14.15 6.82-2.78 3.29-6.52 4.09-9.96 4.64-9.68 1.55-19.43 2.88-29.2 3.7-8.68.72-17.45.37-26.14.98-12.73.88-25.06-1.1-37.29-4.24-3.29-.85-3.28-.87-6.32-4.07z" fill="#d2d5d6"/><path d="m188.85 321.08c2.06 30.26 4.12 60.52 6.18 90.78.55 8.09 1.2 16.51 5.29 23.51 6.18 10.56 18.63 15.44 30.27 19.2 19.96 6.46 40.86 11.87 61.72 9.59s41.83-13.68 50.32-32.86c12.47-28.16 6.38-63.27 8.15-94.01 1.25-21.7 2.15-43.75-2.86-64.89-3.17-13.36-9.25-26.86-20.65-34.51-12.08-8.11-27.65-8.18-42.2-7.97-10.98.16-21.97.33-32.95.49-12.62.19-25.76.5-37 6.25-13.35 6.83-22.11 20.62-25.99 35.11-3.88 14.48-1.3 34.35-.28 49.31z" fill="url(#a)"/><path d="m251.83 231.88c13.65 2.55 28.04 2.67 40.59 8.6 22.73 10.73 33.2 37.43 36.45 62.36 4.8 36.81-1.74 75.02-18.53 108.13-7.52 14.84-17.26 28.88-30.5 38.96s-30.31 15.85-46.72 13.14c8.25 5.14 18.32 6.2 28 6.97 17.68 1.41 35.77 2.27 52.86-2.49 17.08-4.76 33.23-16.08 39.5-32.67 2.75-7.27 3.49-15.13 4.12-22.88 3.39-41.11 4.72-82.4 3.99-123.64-.26-14.51-.85-29.41-6.54-42.76-6.2-14.55-17.87-25.94-29.26-36.92.44.43-28.76 11.88-31.78 12.52-12.32 2.62-25.12 3.05-37.59 1.29-4.99-.7-28.17-9.37-30.07-6.48-5.59 8.52 21.22 15.07 25.48 15.87z" fill="#a04f36" fill-opacity=".32"/><path d="m195.43 269.05c-2.45 12.38-.4 25.15 1.64 37.6 2.96 18.02 5.92 36.04 8.88 54.06.27 1.65.6 3.43 1.8 4.6 2.46 2.41 6.98.49 8.37-2.66 1.38-3.15.64-6.78-.05-10.15-4.92-24.13-5.94-49.05-3.01-73.5.47-3.94 1.35-8.36 4.71-10.48 2.41-1.52 5.47-1.41 8.33-1.33 10.75.28 33.11 1.61 39.18-9.81 5.22-9.8-1.86-13.27-10.57-15.57-25.16-6.64-53.54-1.82-59.28 27.24z" fill="#fff" fill-opacity=".36"/></g></svg>

<?xml version="1.0" encoding="UTF-8" standalone="no"?>
<!DOCTYPE svg PUBLIC "-//W3C//DTD SVG 1.1//EN" "http://www.w3.org/Graphics/SVG/1.1/DTD/svg11.dtd">
<svg width="100%" height="100%" viewBox="0 0 186 306" version="1.1" xmlns="http://www.w3.org/2000/svg" xmlns:xlink="http://www.w3.org/1999/xlink" xml:space="preserve" xmlns:serif="http://www.serif.com/" style="fill-rule:evenodd;clip-rule:evenodd;stroke-linejoin:round;stroke-miterlimit:2;">
    <g transform="matrix(1,0,0,1,-180,-171)">
        <g id="Capa_1">
            <g>
                <path d="M213.35,210.02C212.97,203.16 212.57,195.79 212.13,188.41C211.96,185.58 213.82,183.97 215.83,182.79C223.27,178.45 231.11,174.79 239.71,173.83C249.99,172.68 260.36,172.13 270.7,171.67C275.04,171.48 279.42,172.16 283.77,172.51C295.37,173.44 306.91,174.67 318.37,176.83C324.06,177.9 328.28,181.23 332.41,184.77C333.53,185.73 334.36,187.54 334.48,189.03C335,195.13 335.13,201.27 335.57,207.38C335.65,208.53 336.29,209.8 337.03,210.72C340.45,214.97 344,219.1 347.48,223.3C348.41,224.42 349.38,225.53 350.13,226.76C355.88,236.33 360.29,246.31 362.3,257.5C366.16,279.01 366.25,300.63 365.37,322.29C364.72,338.28 363.27,354.24 362.15,370.2C361.45,380.18 360.71,390.16 359.95,400.13C359.34,408.11 358.6,416.08 358.03,424.06C357.9,425.84 358.56,427.69 358.37,429.45C357.97,433.08 356.42,436.27 354.76,439.58C347.59,453.84 335.26,461.92 321.41,468.06C306.16,474.83 289.95,476.78 273.4,475.94C265.42,475.53 257.33,475.33 249.53,473.79C241.92,472.29 234.5,469.53 227.22,466.74C218.91,463.57 210.56,460.41 203.07,455.39C197.37,451.56 193.08,446.4 189.34,440.85C187.82,438.59 187.17,435.43 187,432.63C186.4,422.46 186.35,412.26 185.76,402.09C184.92,387.56 183.75,373.05 182.8,358.53C182.29,350.72 181.83,342.91 181.55,335.1C181,319.81 180.53,304.52 180.14,289.23C179.84,277.87 182.01,266.85 184.84,255.9C187.19,246.8 191.33,238.58 196.04,230.55C200.52,222.93 206.5,216.64 213.35,210.02ZM216.71,213.21C204.78,222.01 197.22,233.69 191.6,246.7C187.39,256.43 185.11,266.77 183.99,277.28C183.28,283.96 182.96,290.72 183.12,297.43C183.33,306.51 184.27,315.57 184.69,324.65C184.97,330.66 184.7,336.69 185.03,342.69C185.6,353.05 186.45,363.38 187.17,373.73C187.93,384.62 188.69,395.51 189.4,406.4C189.8,412.55 190.05,418.71 190.44,424.87C190.58,427.02 191.53,429.31 191.05,431.27C190.3,434.31 191.22,436.88 192.72,439.01C197.48,445.73 202.89,451.92 210.68,455.35C218.16,458.64 225.76,461.7 233.19,465.11C240.9,468.65 249.13,470.41 257.39,471.21C268.04,472.24 278.72,472.68 289.53,471.73C302.84,470.56 315.37,467.4 327.02,461.1C333.06,457.83 339.24,454.33 343.54,448.75C346.51,444.89 348.6,440.37 351.42,436.38C353.89,432.89 354.4,429.11 354.58,425.02C354.92,417.2 355.46,409.38 356.08,401.58C356.95,390.51 358.11,379.47 358.87,368.4C359.53,358.78 359.81,349.13 360.29,339.5C360.35,338.23 360.62,336.97 360.68,335.7C361.32,320.98 362.41,306.25 362.39,291.53C362.38,282.49 360.72,273.45 359.71,264.42C357.48,244.53 347.16,228.66 334.54,213.94C333.12,212.28 331.54,211.44 329.27,212.49C321.62,216.02 313.58,218.16 305.22,219.2C295.85,220.36 286.51,222.46 277.13,222.65C266.82,222.86 256.46,221.5 246.14,220.56C236.16,219.65 226.4,217.6 216.71,213.21ZM328.73,191.18C325.55,191.68 322.81,191.76 320.31,192.56C307.14,196.77 293.57,197.54 279.9,197.75C276.44,197.8 272.95,197.61 269.52,198C255.65,199.58 241.89,198.69 228.21,196.39C224.53,195.77 220.96,194.47 216.57,193.27C216.89,196.76 216.96,199.62 217.44,202.41C218.72,209.69 218.78,209.71 225.43,212.52C226.93,213.15 228.5,213.7 230.09,213.99C235.63,214.98 241.29,215.43 246.72,216.83C255.83,219.18 265.16,219.07 274.35,219.36C288.21,219.79 301.86,217.2 315.23,213.5C318.9,212.48 322.5,211.19 326.1,209.96C329.22,208.89 330.93,206.05 330.94,203.35C330.96,199.47 329.61,195.59 328.73,191.18ZM216.78,187.03C219.82,190.23 219.81,190.25 223.12,191.1C235.35,194.24 247.68,196.22 260.41,195.34C269.11,194.74 277.87,195.09 286.55,194.36C296.32,193.55 306.06,192.21 315.75,190.66C319.19,190.11 322.93,189.32 325.71,186.02C321.7,181.94 316.68,180.21 311.56,179.2C304.79,177.87 297.91,176.99 291.04,176.3C283.81,175.58 276.54,175.01 269.28,174.93C262.57,174.85 255.84,175.4 249.13,175.86C239,176.55 229.52,179.57 220.56,184.27C219.3,184.92 218.25,185.93 216.78,187.03Z" style="fill:rgb(37,39,35);fill-rule:nonzero;"/>
                <path d="M216.71,213.21C226.39,217.6 236.15,219.65 246.14,220.56C256.45,221.5 266.81,222.85 277.13,222.65C286.51,222.46 295.85,220.37 305.22,219.2C313.58,218.16 321.62,216.02 329.27,212.49C331.54,211.44 333.12,212.28 334.54,213.94C347.16,228.66 357.48,244.53 359.71,264.42C360.72,273.45 362.38,282.49 362.39,291.53C362.41,306.25 361.32,320.98 360.68,335.7C360.62,336.97 360.35,338.23 360.29,339.5C359.82,349.13 359.54,358.78 358.87,368.4C358.11,379.47 356.95,390.52 356.08,401.58C355.47,409.39 354.93,417.2 354.58,425.02C354.4,429.1 353.88,432.89 351.42,436.38C348.6,440.37 346.51,444.9 343.54,448.75C339.24,454.33 333.06,457.84 327.02,461.1C315.38,467.39 302.85,470.56 289.53,471.73C278.71,472.68 268.03,472.24 257.39,471.21C249.13,470.41 240.9,468.65 233.19,465.11C225.76,461.7 218.17,458.64 210.68,455.35C202.89,451.92 197.48,445.74 192.72,439.01C191.22,436.89 190.3,434.32 191.05,431.27C191.53,429.31 190.58,427.02 190.44,424.87C190.05,418.72 189.8,412.56 189.4,406.4C188.69,395.51 187.93,384.62 187.17,373.73C186.45,363.38 185.6,353.04 185.03,342.69C184.7,336.69 184.97,330.65 184.69,324.65C184.26,315.57 183.33,306.51 183.12,297.43C182.96,290.72 183.29,283.96 183.99,277.28C185.1,266.77 187.39,256.43 191.6,246.7C197.22,233.69 204.78,222.01 216.71,213.21Z" style="fill:rgb(196,128,51);fill-rule:nonzero;"/>
                <path d="M328.73,191.18C329.61,195.59 330.96,199.47 330.96,203.35C330.95,206.04 329.25,208.89 326.12,209.96C322.51,211.19 318.92,212.48 315.25,213.5C301.88,217.2 288.23,219.79 274.37,219.36C265.17,219.07 255.85,219.18 246.74,216.83C241.31,215.43 235.65,214.98 230.11,213.99C228.52,213.71 226.94,213.15 225.45,212.52C218.8,209.71 218.74,209.7 217.46,202.41C216.97,199.62 216.9,196.76 216.59,193.27C220.98,194.47 224.54,195.77 228.23,196.39C241.92,198.7 255.68,199.58 269.54,198C272.96,197.61 276.46,197.8 279.92,197.75C293.58,197.54 307.16,196.77 320.33,192.56C322.81,191.76 325.55,191.68 328.73,191.18Z" style="fill:white;fill-rule:nonzero;"/>
                <path d="M216.78,187.03C218.25,185.94 219.3,184.92 220.54,184.27C229.5,179.57 238.98,176.55 249.11,175.86C255.82,175.4 262.55,174.85 269.26,174.93C276.52,175.01 283.79,175.58 291.02,176.3C297.89,176.99 304.77,177.87 311.54,179.2C316.67,180.21 321.68,181.94 325.69,186.02C322.91,189.31 319.17,190.11 315.73,190.66C306.05,192.21 296.3,193.54 286.53,194.36C277.85,195.08 269.08,194.73 260.39,195.34C247.66,196.22 235.33,194.24 223.1,191.1C219.81,190.25 219.82,190.23 216.78,187.03Z" style="fill:rgb(210,213,214);fill-rule:nonzero;"/>
                <path d="M188.85,321.08C190.91,351.34 192.97,381.6 195.03,411.86C195.58,419.95 196.23,428.37 200.32,435.37C206.5,445.93 218.95,450.81 230.59,454.57C250.55,461.03 271.45,466.44 292.31,464.16C313.17,461.88 334.14,450.48 342.63,431.3C355.1,403.14 349.01,368.03 350.78,337.29C352.03,315.59 352.93,293.54 347.92,272.4C344.75,259.04 338.67,245.54 327.27,237.89C315.19,229.78 299.62,229.71 285.07,229.92C274.09,230.08 263.1,230.25 252.12,230.41C239.5,230.6 226.36,230.91 215.12,236.66C201.77,243.49 193.01,257.28 189.13,271.77C185.25,286.25 187.83,306.12 188.85,321.08Z" style="fill:url(#_Linear1);fill-rule:nonzero;"/>
                <path d="M251.83,231.88C265.48,234.43 279.87,234.55 292.42,240.48C315.15,251.21 325.62,277.91 328.87,302.84C333.67,339.65 327.13,377.86 310.34,410.97C302.82,425.81 293.08,439.85 279.84,449.93C266.6,460.01 249.53,465.78 233.12,463.07C241.37,468.21 251.44,469.27 261.12,470.04C278.8,471.45 296.89,472.31 313.98,467.55C331.06,462.79 347.21,451.47 353.48,434.88C356.23,427.61 356.97,419.75 357.6,412C360.99,370.89 362.32,329.6 361.59,288.36C361.33,273.85 360.74,258.95 355.05,245.6C348.85,231.05 337.18,219.66 325.79,208.68C326.23,209.11 297.03,220.56 294.01,221.2C281.69,223.82 268.89,224.25 256.42,222.49C251.43,221.79 228.25,213.12 226.35,216.01C220.76,224.53 247.57,231.08 251.83,231.88Z" style="fill:rgb(160,79,54);fill-opacity:0.32;fill-rule:nonzero;"/>
                <path d="M195.43,269.05C192.98,281.43 195.03,294.2 197.07,306.65C200.03,324.67 202.99,342.69 205.95,360.71C206.22,362.36 206.55,364.14 207.75,365.31C210.21,367.72 214.73,365.8 216.12,362.65C217.5,359.5 216.76,355.87 216.07,352.5C211.15,328.37 210.13,303.45 213.06,279C213.53,275.06 214.41,270.64 217.77,268.52C220.18,267 223.24,267.11 226.1,267.19C236.85,267.47 259.21,268.8 265.28,257.38C270.5,247.58 263.42,244.11 254.71,241.81C229.55,235.17 201.17,239.99 195.43,269.05Z" style="fill:white;fill-opacity:0.36;fill-rule:nonzero;"/>
            </g>
        </g>
    </g>
    <defs>
        <linearGradient id="_Linear1" x1="0" y1="0" x2="1" y2="0" gradientUnits="userSpaceOnUse" gradientTransform="matrix(1.4379e-14,-234.827,234.827,1.4379e-14,269.411,464.691)"><stop offset="0" style="stop-color:rgb(232,193,48);stop-opacity:1"/><stop offset="1" style="stop-color:rgb(232,193,48);stop-opacity:0"/></linearGradient>
    </defs>
</svg>
